icons/1_Primary/Bitkub.svg

<svg xmlns="http://www.w3.org/2000/svg" width="1024" height="1024" fill="none">
   <g clip-path="url(#a)">
      <path fill="#98DC9A" d="M512 1024c282.77 0 512-229.23 512-512S794.77 0 512 0 0 229.23 0 512s229.23 512 512 512Z"/>
      <path fill="#fff" d="M625.54 315.22a58.83 58.83 0 0 0-.05 83.2l.05.05 113.24 113.28-113.52 113.52-57.75-57.77a58.877 58.877 0 0 0-83.25 0l140.92 140.95L822 511.67 625.54 315.22Zm0 156.41a40.356 40.356 0 0 1 37.28 24.919 40.362 40.362 0 0 1-29.414 55.025 40.358 40.358 0 0 1-41.43-17.155A40.359 40.359 0 0 1 585.17 512a40.363 40.363 0 0 1 24.922-37.291 40.34 40.34 0 0 1 15.448-3.069v-.01Zm-227 237.14a58.883 58.883 0 0 0 0-83.25L285.29 512.25l113.53-113.52 57.7 57.77a58.881 58.881 0 0 0 83.25 0L398.82 315.55 202 512.33l196.54 196.44Zm0-237.14a40.357 40.357 0 0 1 37.244 24.954 40.361 40.361 0 0 1-52.756 52.691 40.358 40.358 0 0 1-21.835-52.723 40.365 40.365 0 0 1 37.297-24.912l.05-.01Z"/>
   </g>
   <defs>
      <clipPath id="a">
         <path fill="#fff" d="M0 0h1024v1024H0z"/>
      </clipPath>
   </defs>
</svg>

<svg width="1024" height="1024" viewBox="0 0 1024 1024" fill="none" xmlns="http://www.w3.org/2000/svg">
<g clip-path="url(#clip0_2_1635)">
<path d="M512 1024C794.77 1024 1024 794.77 1024 512C1024 229.23 794.77 0 512 0C229.23 0 0 229.23 0 512C0 794.77 229.23 1024 512 1024Z" fill="#98DC9A"/>
<path d="M625.54 315.22C620.074 320.679 615.736 327.162 612.775 334.298C609.814 341.434 608.288 349.083 608.283 356.809C608.279 364.535 609.796 372.186 612.748 379.326C615.7 386.465 620.03 392.954 625.49 398.42L625.54 398.47L738.78 511.75L625.26 625.27L567.51 567.5C556.469 556.463 541.496 550.264 525.885 550.264C510.274 550.264 495.301 556.463 484.26 567.5L625.18 708.45L822 511.67L625.54 315.22ZM625.54 471.63C633.522 471.632 641.323 474 647.959 478.436C654.595 482.871 659.766 489.175 662.82 496.549C665.873 503.924 666.672 512.038 665.114 519.866C663.556 527.694 659.713 534.885 654.069 540.529C648.425 546.172 641.234 550.016 633.406 551.574C625.578 553.131 617.464 552.333 610.09 549.279C602.715 546.226 596.412 541.054 591.976 534.419C587.54 527.783 585.172 519.981 585.17 512C585.17 506.699 586.214 501.45 588.243 496.552C590.272 491.655 593.246 487.205 596.995 483.457C600.744 479.709 605.194 476.737 610.092 474.709C614.99 472.681 620.239 471.638 625.54 471.64V471.63ZM398.54 708.77C409.576 697.728 415.776 682.756 415.776 667.145C415.776 651.533 409.576 636.561 398.54 625.52L285.29 512.25L398.82 398.73L456.52 456.5C467.561 467.536 482.534 473.736 498.145 473.736C513.756 473.736 528.729 467.536 539.77 456.5L398.82 315.55L202 512.33L398.54 708.77ZM398.54 471.63C406.519 471.642 414.316 474.018 420.945 478.46C427.574 482.902 432.738 489.209 435.784 496.584C438.83 503.959 439.621 512.072 438.058 519.897C436.495 527.721 432.647 534.907 427.001 540.546C421.355 546.185 414.165 550.024 406.338 551.577C398.511 553.131 390.399 552.33 383.028 549.275C375.656 546.22 369.356 541.048 364.923 534.414C360.489 527.779 358.122 519.979 358.12 512C358.12 506.699 359.164 501.45 361.193 496.552C363.222 491.655 366.196 487.205 369.945 483.457C373.694 479.709 378.144 476.737 383.042 474.709C387.94 472.681 393.189 471.638 398.49 471.64L398.54 471.63Z" fill="white"/>
</g>
<defs>
<clipPath id="clip0_2_1635">
<rect width="1024" height="1024" fill="white"/>
</clipPath>
</defs>
</svg>
